client/src/images/js-svg.svg

<svg width="100" height="119" viewBox="0 0 135 154" fill="none" xmlns="http://www.w3.org/2000/svg">
<g filter="url(#filter0_d)">
<path d="M5.95227 145V1.05072H109.903L130 33.6021V145H5.95227Z" fill="#E9CA35"/>
<path d="M5.95227 0.55072H5.45227V1.05072V145V145.5H5.95227H130H130.5V145V33.6021V33.4602L130.425 33.3394L110.328 0.788051L110.182 0.55072H109.903H5.95227Z" stroke="black"/>
</g>
<path d="M107 29.783L110.479 2L127.837 32.3923L107 29.783Z" fill="#E9CA35" stroke="black"/>
<path d="M55.2422 66.8565C53.5713 66.3845 52.311 65.6057 51.4614 64.5201C50.6213 63.4439 50.2012 62.0185 50.2012 60.2437V57.4259C50.2012 55.1319 49.2005 53.985 47.1992 53.985V51.9317C49.2005 51.9317 50.2012 50.7895 50.2012 48.505V45.5597C50.2201 43.8321 50.6401 42.4397 51.4614 41.3824C52.2922 40.3157 53.5524 39.5416 55.2422 39.0602L55.7803 40.6886C53.8073 41.3211 52.8208 42.9684 52.8208 45.6305V48.4908C52.8208 50.6337 52.0326 52.1253 50.4561 52.9654C52.0326 53.815 52.8208 55.3207 52.8208 57.4825V60.3995C52.8491 62.9955 53.8356 64.6051 55.7803 65.2281L55.2422 66.8565ZM64.8853 47.797C64.8853 47.3438 65.0174 46.9662 65.2817 46.6642C65.5555 46.3621 65.9614 46.211 66.4995 46.211C67.0376 46.211 67.4435 46.3621 67.7173 46.6642C68.0005 46.9662 68.1421 47.3438 68.1421 47.797C68.1421 48.2312 68.0005 48.5947 67.7173 48.8873C67.4435 49.1799 67.0376 49.3263 66.4995 49.3263C65.9614 49.3263 65.5555 49.1799 65.2817 48.8873C65.0174 48.5947 64.8853 48.2312 64.8853 47.797ZM65.3809 65.7804L63.894 64.7608C64.7814 63.5242 65.244 62.2498 65.2817 60.9376V58.5728H67.8447V60.6261C67.8447 61.5795 67.6087 62.533 67.1367 63.4864C66.6742 64.4399 66.0889 65.2045 65.3809 65.7804ZM76.9214 65.2281C78.8377 64.6145 79.8289 63.0522 79.895 60.5411V57.4259C79.895 55.2452 80.7493 53.7584 82.458 52.9654C80.7493 52.1913 79.895 50.7045 79.895 48.505V45.6305C79.895 42.9684 78.9085 41.3211 76.9355 40.6886L77.4736 39.0602C79.1445 39.5322 80.4001 40.3015 81.2402 41.3683C82.0804 42.4255 82.5052 43.8274 82.5146 45.5738V48.5475C82.5146 50.8036 83.5153 51.9317 85.5166 51.9317V53.985C83.5153 53.985 82.5146 55.1319 82.5146 57.4259V60.2862C82.5146 62.061 82.0851 63.4817 81.2261 64.5484C80.3765 65.6152 79.1257 66.3845 77.4736 66.8565L76.9214 65.2281Z" fill="black"/>
<path d="M61.3579 76.7814H64.0908V91.3805C64.0908 93.3535 63.4961 94.8969 62.3066 96.0109C61.1266 97.1248 59.5501 97.6818 57.5771 97.6818C55.5286 97.6818 53.9333 97.1578 52.791 96.11C51.6488 95.0621 51.0776 93.5942 51.0776 91.7062H53.7964C53.7964 92.8862 54.1174 93.8066 54.7593 94.4674C55.4106 95.1282 56.3499 95.4586 57.5771 95.4586C58.7005 95.4586 59.6068 95.1046 60.2959 94.3966C60.9945 93.6886 61.3485 92.6974 61.3579 91.423V76.7814ZM74.7959 88.2086C72.4642 87.5384 70.765 86.7171 69.6982 85.7448C68.641 84.763 68.1123 83.5546 68.1123 82.1198C68.1123 80.4961 68.759 79.1556 70.0522 78.0983C71.355 77.0315 73.0448 76.4982 75.1216 76.4982C76.5376 76.4982 77.7979 76.7719 78.9023 77.3195C80.0163 77.867 80.8753 78.6222 81.4795 79.5851C82.0931 80.548 82.3999 81.6005 82.3999 82.7428H79.667C79.667 81.4967 79.2705 80.5197 78.4775 79.8116C77.6846 79.0942 76.5659 78.7355 75.1216 78.7355C73.7811 78.7355 72.7332 79.0328 71.978 79.6276C71.2323 80.2128 70.8594 81.0294 70.8594 82.0773C70.8594 82.9174 71.2134 83.6302 71.9214 84.2155C72.6388 84.7913 73.8519 85.3199 75.5605 85.8014C77.2786 86.2828 78.6191 86.8162 79.582 87.4015C80.5544 87.9773 81.2718 88.6523 81.7344 89.4264C82.2064 90.2005 82.4424 91.1115 82.4424 92.1593C82.4424 93.8302 81.791 95.1707 80.4883 96.1808C79.1855 97.1814 77.4438 97.6818 75.2632 97.6818C73.8472 97.6818 72.5256 97.4127 71.2983 96.8746C70.0711 96.3271 69.1224 95.5813 68.4521 94.6373C67.7913 93.6933 67.4609 92.6219 67.4609 91.423H70.1938C70.1938 92.6691 70.6517 93.6556 71.5674 94.3824C72.4925 95.0999 73.7244 95.4586 75.2632 95.4586C76.6981 95.4586 77.7979 95.166 78.5625 94.5807C79.3271 93.9954 79.7095 93.1977 79.7095 92.1876C79.7095 91.1775 79.3555 90.3987 78.6475 89.8512C77.9395 89.2942 76.6556 88.7467 74.7959 88.2086Z" fill="black"/>
<defs>
<filter id="filter0_d" x="0.952271" y="0.0507202" width="134.048" height="153.949" filterUnits="userSpaceOnUse" color-interpolation-filters="sRGB">
<feFlood flood-opacity="0" result="BackgroundImageFix"/>
<feColorMatrix in="SourceAlpha" type="matrix" values="0 0 0 0 0 0 0 0 0 0 0 0 0 0 0 0 0 0 127 0"/>
<feOffset dy="4"/>
<feGaussianBlur stdDeviation="2"/>
<feColorMatrix type="matrix" values="0 0 0 0 0 0 0 0 0 0 0 0 0 0 0 0 0 0 0.25 0"/>
<feBlend mode="normal" in2="BackgroundImageFix" result="effect1_dropShadow"/>
<feBlend mode="normal" in="SourceGraphic" in2="effect1_dropShadow" result="shape"/>
</filter>
</defs>
</svg>

<svg width="100" height="119" viewBox="0 0 135 154" fill="none" xmlns="http://www.w3.org/2000/svg"><g filter="url(#filter0_d)"><path d="M5.952 145V1.05h103.951L130 33.603V145H5.952z" fill="#E9CA35"/><path d="M5.952.55h-.5V145.5H130.5V33.46l-.075-.12L110.328.787l-.146-.237H5.953z" stroke="#000"/></g><path d="M107 29.783L110.479 2l17.358 30.392L107 29.783z" fill="#E9CA35" stroke="#000"/><path d="M55.242 66.856c-1.67-.471-2.931-1.25-3.78-2.336-.84-1.076-1.26-2.501-1.26-4.276v-2.818c0-2.294-1.002-3.441-3.003-3.441v-2.053c2.002 0 3.002-1.143 3.002-3.427V45.56c.02-1.728.44-3.12 1.26-4.178.831-1.066 2.091-1.84 3.781-2.322l.538 1.629c-1.973.632-2.96 2.28-2.96 4.941v2.86c0 2.144-.787 3.635-2.364 4.475 1.577.85 2.365 2.356 2.365 4.517V60.4c.028 2.596 1.015 4.205 2.96 4.828l-.539 1.629zm9.643-19.059c0-.453.132-.83.397-1.133.273-.302.68-.453 1.218-.453.538 0 .944.151 1.217.453.284.302.425.68.425 1.133 0 .434-.141.798-.425 1.09-.273.293-.68.44-1.218.44-.538 0-.944-.147-1.217-.44-.265-.292-.397-.656-.397-1.09zm.496 17.983l-1.487-1.02c.887-1.236 1.35-2.51 1.388-3.822v-2.365h2.563v2.053c0 .954-.236 1.907-.708 2.86-.463.954-1.048 1.718-1.756 2.294zm11.54-.552c1.917-.613 2.908-2.176 2.974-4.687v-3.115c0-2.18.854-3.668 2.563-4.46-1.709-.775-2.563-2.261-2.563-4.461V45.63c0-2.662-.986-4.309-2.96-4.941l.539-1.629c1.67.472 2.926 1.241 3.766 2.308.84 1.057 1.265 2.46 1.275 4.206v2.974c0 2.256 1 3.384 3.002 3.384v2.053c-2.002 0-3.002 1.147-3.002 3.44v2.861c0 1.775-.43 3.196-1.289 4.262-.85 1.067-2.1 1.837-3.752 2.308l-.553-1.628zM61.358 76.781h2.733v14.6c0 1.972-.595 3.516-1.784 4.63-1.18 1.114-2.757 1.67-4.73 1.67-2.048 0-3.644-.523-4.786-1.571-1.142-1.048-1.713-2.516-1.713-4.404h2.718c0 1.18.321 2.1.963 2.761.652.661 1.59.992 2.818.992 1.123 0 2.03-.354 2.719-1.062.699-.708 1.053-1.7 1.062-2.974V76.781zM74.796 88.21c-2.332-.67-4.031-1.492-5.098-2.464-1.057-.982-1.586-2.19-1.586-3.625 0-1.624.647-2.964 1.94-4.022 1.303-1.067 2.993-1.6 5.07-1.6 1.416 0 2.676.274 3.78.822 1.114.547 1.973 1.302 2.578 2.265a5.76 5.76 0 01.92 3.158h-2.733c0-1.246-.397-2.223-1.19-2.931-.792-.718-1.911-1.076-3.355-1.076-1.34 0-2.389.297-3.144.892-.746.585-1.119 1.401-1.119 2.45 0 .84.354 1.552 1.062 2.138.718.575 1.93 1.104 3.64 1.585 1.718.482 3.058 1.015 4.021 1.6.972.576 1.69 1.251 2.152 2.025.472.775.708 1.686.708 2.733 0 1.671-.651 3.012-1.954 4.022-1.302 1-3.044 1.5-5.225 1.5-1.416 0-2.737-.268-3.965-.806-1.227-.548-2.176-1.294-2.846-2.238-.66-.944-.991-2.015-.991-3.214h2.733c0 1.246.458 2.233 1.373 2.96.926.717 2.157 1.076 3.696 1.076 1.435 0 2.535-.293 3.3-.878.764-.586 1.147-1.383 1.147-2.393 0-1.01-.354-1.79-1.063-2.337-.708-.557-1.991-1.104-3.851-1.642z" fill="#000"/><defs><filter id="filter0_d" x=".952" y=".051" width="134.048" height="153.949" filterUnits="userSpaceOnUse" color-interpolation-filters="sRGB"><feFlood flood-opacity="0" result="BackgroundImageFix"/><feColorMatrix in="SourceAlpha" values="0 0 0 0 0 0 0 0 0 0 0 0 0 0 0 0 0 0 127 0"/><feOffset dy="4"/><feGaussianBlur stdDeviation="2"/><feColorMatrix values="0 0 0 0 0 0 0 0 0 0 0 0 0 0 0 0 0 0 0.25 0"/><feBlend in2="BackgroundImageFix" result="effect1_dropShadow"/><feBlend in="SourceGraphic" in2="effect1_dropShadow" result="shape"/></filter></defs></svg>
